X:1
T:The Leaboy's Lassie
M:3/2
L:1/4
K:C
 c B/2B/2 A A/2G/2 E3/2 E/2| c B A c d B/2B/2| c B AA/2-G/2| E3/2 E/2|\
 E D C E G E| E E E E/2D/2 C2| c B A B/2c/2 d B| c B A A/2G/2 E2| E E/2D/2 C|\
 E G E||
